X:1
T:Glory All the Way!
T:Glory All the Way!
T:Daniel Brink Towner
T:John Henry Sammis, 1900
T:Public Domain Courtesy of the Cyber Hymnal™
T:Public Domain Courtesy of the Cyber Hymnal™
C:Daniel Brink Towner
Z:Public Domain
Z:Courtesy of the Cyber Hymnal™
%%score ( 1 2 ) ( 3 4 )
L:1/8
Q:1/4=105
M:4/4
K:F
V:1 treble 
V:2 treble 
V:3 bass 
V:4 bass 
V:1
 [CF][CG] | [FA]2 [Fc]2 [CF]2 [CF][CG] | [FA]2 [Ac]2 [Bd][Ac][Bd][Bf] | [Ac]2 [FA]2 [CF]3 [FA] | %4
w: 1.~Saved by|grace a- lone, God’s own|word be- liev- ing— It is|glo- ry all the|
w: 2.~Not a|care have I since my|Sav- ior car- eth— It is|glo- ry all the|
w: 3.~Sev- ered|from the world, His dear|name con- fess- ing— It is|glo- ry all the|
w: 3.~Sin- ner,|put your trust in this|lov- ing Sav- ior— It is|glo- ry all the|
w: 5.~Work- ing|day by day, mind- ed|that He sees us— It is|glo- ry all the|
 [EG]6 [CF][CG] | [FA]2 [Fc]2 [CF]2 [CF][CG] | [FA]2 [Ac]2 [Bd][Ac][Bd][Bf] | [Ac]2 [FA]2 [EG]3 F | %8
w: way! Walk- ing|in the light, dai- ly|grace re- ceiv- ing— It is|glo- ry all the|
w: way! Guid- ed|by His eye, while with|me He far- eth— It is|glo- ry all the|
w: way! Tak- ing|up the cross, shar- ing|in the bless- ing— It is|glo- ry all the|
w: way! Free- ly|He for- gives all our|past be- hav- ior— It is|glo- ry all the|
w: way! Watch and|wait and pray, look- ing|un- to Je- sus— It is|glo- ry all the|
 F6 z2 ||"^Refrain" c3 [FA] c4 | d3 [FB] [Fd]2 [Be][Be] | [Af]2 [Fc]2 A2 F2 | G4 c4 | c3 [FA] c4 | %14
w: way!||||||
w: way!||||||
w: way!|Glo- ry! Glo-|ry! It is glo- ry|* all the way.|Glo- ry!|Glo- ry! It|
w: way!||||||
w: way!||||||
 d3 [FB] [Fd]2 [Be][Be] | [Af]2 [Fc]2 A3 (z G) | F8 |] %17
w: |||
w: |||
w: is glo- ry all the|* way. * *||
w: |||
w: |||
V:2
 x2 | x8 | x8 | x8 | x8 | x8 | x8 | x7 F | F6 x2 || (F F F F2 F2) x | F F F x5 | x4 C4 | %12
 (EEGG F2 E2) | (F F F F2 F2) x | F F F x5 | x4 F2 E2 x | (FFDD C4) |] %17
V:3
 [F,A,][F,B,] | [F,C]2 [F,A,]2 [F,A,]2 [F,A,][F,B,] | [F,C]2 [F,A,]2 F,F,[B,,F,][D,F,] | %3
w: ~ ~|~ ~ ~ ~ ~|~ ~ ~ ~ ~ ~|
 F,2 [F,C]2 [F,A,]3 [F,C] | [C,C]6 [F,A,][F,B,] | [F,C]2 [F,A,]2 [F,A,]2 [F,A,][F,B,] | %6
w: ~ ~ ~ ~|~ ~ ~|~ ~ ~ ~ ~|
 [F,C]2 [F,F]2 [F,F][F,F][B,F][B,D] | [CF]2 C2 [C,B,]3 [F,A,] | [F,A,]6 z2 || A,3 [F,C] A,4 | %10
w: ~ ~ ~ ~ ~ ~|~ ~ ~ ~|~|Glo- ry all|
 B,3 [B,D] B,2 [G,C][G,C] | (C2 A,2) (F,2 A,2) | C6 [G,B,]2 | A,3 [F,C] A,4 | %14
w: the way, yes, glo- ry|all * the *|way! It|* is glo-|
 B,3 [B,D] B,2 [G,C][G,C] | [F,C]2 [F,A,]2 [C,C]2 [C,B,]2 x | %16
w: ry, glo- ry all the|way, Glo- ry all|
 [G,,F,A,][G,,F,A,][F,,F,B,][F,,F,B,] [F,,F,A,]4 |] %17
w: the way, yes, glo- ry|
V:4
 x2 | x8 | x4 F,F, x2 | F,2 x6 | x8 | x8 | x8 | x2 C2 x4 | x8 || F,F,F, F,2 F,2 x | B,B,B, B,2 x3 | %11
 F,4 F,4 | C,C,B,B, A,2 x2 | F, F, F, F,2 F,2 x | B, B, B, B,2 x3 | x9 | x8 |] %17

